X: 207
T: The Tongadale Reel
C:Farquhar McDonald
F:http://blackrosetheband.googlepages.com/ABCTUNES.ABC May 2009
L:1/8
M:4/4
R:Reel
K:Am
AB |\
"Am"cBcB AEAB | "F"cBcB AFAc |\
[1,3 "G"BGDG EDDd | dBcB "Am"A2 :|\
[2,4 "G"BGDG "Em"EDEG | EDCB, "Am"A,2 :|
|: A,B, |\
"Am"CA,EA, FA,EA, | GA,EA, "D"FEDC |\
[1,3 "G"B,G,DG, EG,DG, | FG,EG, "Em"DC :|\
[2,4 "G"B,G,DG, EDCB, | "Am"CA,A,G, "Am"A,2 :|
